resources/icons/20px/swap-horizontal.svg

<svg xmlns="http://www.w3.org/2000/svg" viewBox="0 0 20 20">
  <path d="M16.02 10q-.015 0 0 0H16zM2 6h13.58l-2.29 2.29a1 1 0 0 0-.3.71 1.003 1.003 0 0 0 1.71.71l4-4c.18-.18.29-.43.29-.71s-.11-.53-.29-.71l-4-4a1.003 1.003 0 0 0-1.42 1.42L15.58 4H2c-.55 0-1 .45-1 1s.45 1 1 1m2 4h-.02zm14 4H4.42l2.29-2.29a1 1 0 0 0 .3-.71 1.003 1.003 0 0 0-1.71-.71l-4 4c-.18.18-.29.43-.29.71s.11.53.29.71l4 4a1.003 1.003 0 0 0 1.42-1.42L4.42 16H18c.55 0 1-.45 1-1s-.45-1-1-1"/>
</svg>

<?xml version="1.0" encoding="utf-8"?>
<!-- Generator: Adobe Illustrator 18.0.0, SVG Export Plug-In . SVG Version: 6.00 Build 0)  -->
<svg version="1.1" id="Layer_1" xmlns="http://www.w3.org/2000/svg" xmlns:xlink="http://www.w3.org/1999/xlink" x="0px" y="0px"
	 viewBox="0 0 20 20" enable-background="new 0 0 20 20" xml:space="preserve">
<g id="swap:_horizontal_1_">
	<g>
		<path fill-rule="evenodd" clip-rule="evenodd" d="M16.02,10C16.01,10,16.01,10,16.02,10C16,10,16,10,16,10H16.02z M2,6h13.58
			l-2.29,2.29C13.1,8.48,12.99,8.73,12.99,9c0,0.55,0.45,1,1,1c0.28,0,0.53-0.11,0.71-0.29l4-4c0.18-0.18,0.29-0.43,0.29-0.71
			c0-0.28-0.11-0.53-0.29-0.71l-4-4C14.52,0.11,14.27,0,13.99,0c-0.55,0-1,0.45-1,1c0,0.28,0.11,0.53,0.29,0.71L15.58,4H2
			C1.45,4,1,4.45,1,5C1,5.55,1.45,6,2,6z M4,10H3.98C3.99,10,3.99,10,4,10C4,10,4,10,4,10z M18,14H4.42l2.29-2.29
			C6.9,11.52,7.01,11.27,7.01,11c0-0.55-0.45-1-1-1c-0.28,0-0.53,0.11-0.71,0.29l-4,4C1.12,14.47,1.01,14.72,1.01,15
			c0,0.28,0.11,0.53,0.29,0.71l4,4C5.48,19.89,5.73,20,6.01,20c0.55,0,1-0.45,1-1c0-0.28-0.11-0.53-0.29-0.71L4.42,16H18
			c0.55,0,1-0.45,1-1C19,14.45,18.55,14,18,14z"/>
	</g>
</g>
</svg>
